!!!OTL: "Liebesgezaenke" UND MEI BUA DER THUT MAULE
!!!ARE: Europa, Mitteleuropa, Deutschland, Bayern; Tirol
!!!SCT: Z1245
!!!YEM: Copyright 1995, estate of Helmut Schaffrath.
**kern
*ICvox
*Ivox
*M3/4
*k[b-]
*F:
{8.ff
16dd
=1
8dd
8cc
8a
8c
4f
=2
8e
8g
8b-
8g}
{8ee
8dd
=3
8dd
8cc
8b-
8c
4e
=4
8f
8a
8cc
8a}
{8ff
8dd
=5
8dd
8cc
8a
8c
4f
=6
8e
8g
8b-
8g}
{8ee
8dd
=7
8dd
8cc
8b-
8c
4e
=8
2f}
==
!!!AGN: Liebes - Lied
!!!ONB: ESAC (Essen Associative Code) Database: ZUCCAL
!!!AMT: simple triple
!!!AIN: vox
!!!EED: Helmut Schaffrath
!!!EEV: 1.0
*-
